dist/img/sprites/release.svg

<svg width="75" height="75" viewBox="0 0 75 75" fill="none" xmlns="http://www.w3.org/2000/svg">
<path d="M0 46.16C0.354124 45.0137 0.598158 43.8202 1.08989 42.7337C1.99631 40.7349 3.56509 39.3038 5.48067 38.221C9.33383 36.0408 13.176 33.8443 17.0145 31.6387C17.3612 31.4392 17.6915 31.1598 17.9392 30.8479C24.1593 23.0358 30.3794 15.2237 36.5665 7.38807C37.739 5.90437 39.1279 5.02105 41.0729 5.30219C42.5426 5.51441 43.6086 6.34332 44.3444 7.61117C45.9609 10.3917 47.6031 13.1578 49.1884 15.9547C49.5003 16.5061 49.8379 16.6748 50.4507 16.6222C51.9571 16.4916 53.4727 16.439 54.981 16.3283C55.8121 16.2667 56.3718 16.6022 56.7754 17.3078C57.6378 18.8205 58.5149 20.3241 59.4103 21.8169C59.8341 22.5243 59.7974 23.1646 59.3332 23.8375C58.48 25.0727 57.6837 26.346 56.814 27.5685C56.4782 28.0419 56.447 28.3901 56.7552 28.9053C58.2727 31.4355 59.7754 33.9749 61.2231 36.545C62.7845 39.3183 61.1882 42.4998 58.0341 43.0475C56.1369 43.3776 54.2489 43.7585 52.359 44.1231C45.0361 45.5379 37.7151 46.9545 30.3923 48.3711C30.1776 48.4128 29.9684 48.4726 29.651 48.5488C30.1886 49.4757 30.7042 50.3681 31.2235 51.2586C32.0308 52.648 31.8601 53.272 30.4547 54.0791C29.4216 54.6722 28.3868 55.2653 27.3556 55.8603C27.3189 55.882 27.2987 55.9328 27.2382 56.0126C28.629 58.3942 30.0271 60.7938 31.4308 63.1917C32.4436 64.9221 32.706 66.7268 31.895 68.595C31.04 70.563 29.4987 71.7619 27.3648 72.0612C25.1777 72.3695 23.3263 71.635 21.9263 69.91C21.6236 69.5364 21.3649 69.121 21.1208 68.7038C18.908 64.9275 16.7025 61.1475 14.4952 57.3675C14.3631 57.1408 14.2218 56.9177 14.1209 56.7527C12.9668 56.9467 11.8751 57.2515 10.7723 57.2968C5.40911 57.5181 1.08439 54.0283 0.135778 48.7955C0.115595 48.6848 0.045871 48.5815 0 48.4763C0 47.7036 0 46.9309 0 46.1582L0 46.16ZM53.6379 40.9127C47.9829 31.2288 42.3646 21.6101 36.695 11.9008C36.5922 12.0496 36.5408 12.133 36.4803 12.2092C31.1923 18.8713 25.9061 25.537 20.6034 32.1883C20.3245 32.5383 20.4236 32.7614 20.6071 33.0752C23.0034 37.1635 25.396 41.2555 27.7685 45.3565C27.9996 45.7574 28.2107 45.8571 28.6822 45.7628C34.8032 44.5602 40.9316 43.3867 47.0563 42.2023C49.2269 41.7833 51.3957 41.3516 53.6379 40.9127ZM18.0108 34.4283C16.7906 35.123 15.631 35.7796 14.4769 36.4435C11.6971 38.0414 8.86961 39.565 6.15222 41.2627C3.41647 42.9713 2.28804 46.4121 3.28436 49.3977C4.76875 53.8451 9.80355 55.7623 13.9925 53.428C17.664 51.382 21.2988 49.2707 24.9483 47.1848C25.0676 47.1159 25.174 47.027 25.3134 46.9273C22.8731 42.7501 20.4511 38.6055 18.0108 34.4283ZM40.4307 8.12629C39.5169 8.1009 38.5243 9.22908 38.9023 9.87661C44.7389 19.8798 50.581 29.8775 56.414 39.8824C56.5956 40.1944 56.7681 40.3069 57.1589 40.2524C58.8415 40.0221 59.3332 39.0825 58.4818 37.6279C54.8745 31.4464 51.2636 25.2686 47.6563 19.0889C45.7297 15.7896 43.8031 12.4921 41.8839 9.18918C41.5536 8.61964 41.1646 8.15168 40.4325 8.12629H40.4307ZM16.6512 55.2672C19.119 59.4933 21.5263 63.6252 23.9465 67.7516C24.4089 68.5388 25.0951 69.0593 26.0272 69.1936C27.2198 69.3659 28.207 68.9868 28.8987 68.0092C29.6308 66.9771 29.6106 65.8852 28.9868 64.8078C27.7281 62.633 26.4565 60.4673 25.1887 58.298C24.0456 56.3409 22.8988 54.3838 21.7245 52.3741C20.0254 53.3427 18.3667 54.2895 16.6493 55.269L16.6512 55.2672ZM51.2617 19.4644C52.4489 21.4995 53.5663 23.4112 54.7461 25.4318C55.3424 24.5394 55.8984 23.7287 56.4195 22.8961C56.491 22.7819 56.4268 22.5297 56.3442 22.3864C55.8231 21.4614 55.291 20.5418 54.7369 19.6367C54.6397 19.4789 54.4177 19.2885 54.258 19.2921C53.3131 19.3175 52.37 19.3937 51.2617 19.4644ZM25.7318 53.428C26.6199 52.9183 27.4253 52.4558 28.262 51.9769C27.7428 51.09 27.2749 50.2882 26.7978 49.4738C25.9098 49.9835 25.1006 50.4479 24.2694 50.9267C24.7777 51.7937 25.2364 52.5791 25.7336 53.4298L25.7318 53.428Z" fill="#4B8125"/>
<path d="M65.1461 15.6356C64.7883 15.3091 64.3204 15.0316 64.0746 14.6235C63.7663 14.1138 63.9149 13.5425 64.3461 13.1017C64.5131 12.933 64.7223 12.7933 64.9314 12.6773C67.48 11.2697 70.0304 9.86042 72.5882 8.46742C73.5295 7.95592 74.3955 8.14274 74.812 8.90454C75.2249 9.6609 74.9533 10.4535 74.0579 10.956C72.4084 11.8828 70.7424 12.7861 69.0837 13.6984C68.1901 14.19 67.3039 14.6924 66.3993 15.164C66.0635 15.3381 65.6874 15.4343 65.1443 15.6338L65.1461 15.6356Z" fill="#4B8125"/>
<path d="M66.2281 21.8261C66.4024 21.866 66.7363 21.9331 67.0629 22.0201C68.6134 22.4301 70.1638 22.8382 71.7088 23.2644C72.7509 23.5528 73.2225 24.2548 72.984 25.1072C72.7528 25.9307 71.9987 26.3062 71.0005 26.0522C69.2354 25.6024 67.4703 25.1472 65.7162 24.6592C64.8263 24.4126 64.3822 23.7632 64.5015 23.0214C64.6244 22.2596 65.2428 21.7862 66.2299 21.8261H66.2281Z" fill="#4B8125"/>
<path d="M56.2362 8.69234C56.5572 7.48979 56.9389 6.04963 57.3242 4.61128C57.4618 4.09978 57.5811 3.58285 57.7536 3.08405C58.0361 2.27146 58.7737 1.85066 59.5113 2.04837C60.3113 2.26058 60.7645 2.97885 60.5462 3.84404C60.0801 5.68505 59.5884 7.52062 59.0581 9.3435C58.8068 10.2069 58.1279 10.5841 57.3371 10.4209C56.6325 10.2758 56.2031 9.70264 56.2362 8.69234Z" fill="#4B8125"/>
<path d="M10.5358 51.5565C8.66974 51.4785 7.4459 50.8473 6.5872 49.5649C6.08629 48.8158 6.20739 47.9941 6.8716 47.5099C7.50278 47.0473 8.28626 47.1689 8.88808 47.8218C9.80183 48.814 10.2404 48.8829 11.4238 48.2136C12.0789 47.8418 12.7247 47.45 13.3908 47.0999C14.244 46.6519 15.0898 46.8478 15.5045 47.5534C15.9265 48.2717 15.6898 49.0933 14.8587 49.5903C13.9633 50.1254 13.0568 50.6568 12.1119 51.0976C11.5321 51.3678 10.8697 51.464 10.5358 51.5583V51.5565Z" fill="#4B8125"/>
<path d="M19.3316 43.9634C20.1389 43.9634 20.7774 44.5819 20.783 45.3691C20.7885 46.1473 20.1316 46.7894 19.3353 46.7857C18.5279 46.7803 17.8857 46.1563 17.8857 45.3764C17.8857 44.5874 18.5224 43.9653 19.3334 43.9634H19.3316Z" fill="#4B8125"/>
</svg>

<svg width="75" height="75" viewBox="0 0 75 75" fill="none" xmlns="http://www.w3.org/2000/svg"><path d="M0 46.16c.354-1.146.598-2.34 1.09-3.426.906-2 2.475-3.43 4.39-4.513 3.854-2.18 7.696-4.377 11.535-6.582.346-.2.677-.48.924-.791 6.22-7.812 12.44-15.624 18.627-23.46 1.173-1.484 2.562-2.367 4.507-2.086 1.47.212 2.536 1.041 3.271 2.31 1.617 2.78 3.26 5.546 4.844 8.343.312.551.65.72 1.263.667 1.506-.13 3.022-.183 4.53-.294.831-.061 1.39.274 1.794.98.863 1.512 1.74 3.016 2.635 4.509.424.707.387 1.348-.077 2.02-.853 1.236-1.65 2.509-2.519 3.732-.336.473-.367.821-.059 1.336 1.518 2.53 3.02 5.07 4.468 7.64 1.562 2.773-.035 5.955-3.189 6.502-1.897.33-3.785.712-5.675 1.076-7.323 1.415-14.644 2.832-21.967 4.248-.214.042-.424.102-.741.178.538.927 1.053 1.82 1.573 2.71.807 1.389.636 2.013-.77 2.82-1.032.593-2.067 1.186-3.098 1.781-.037.022-.057.073-.118.153 1.391 2.381 2.79 4.78 4.193 7.179 1.013 1.73 1.275 3.535.464 5.403-.855 1.968-2.396 3.167-4.53 3.466-2.187.308-4.039-.426-5.439-2.151a9.627 9.627 0 01-.805-1.206c-2.213-3.776-4.418-7.556-6.626-11.336-.132-.227-.273-.45-.374-.615-1.154.194-2.246.498-3.349.544-5.363.221-9.688-3.269-10.636-8.502-.02-.11-.09-.214-.136-.319v-2.318.002zm53.638-5.247L36.695 11.9c-.103.149-.154.232-.215.308-5.288 6.662-10.574 13.328-15.877 19.98-.279.35-.18.572.004.886a2499.22 2499.22 0 017.162 12.281c.23.401.442.501.913.407 6.121-1.203 12.25-2.376 18.374-3.56 2.17-.42 4.34-.851 6.582-1.29zM18.01 34.428c-1.22.695-2.38 1.352-3.534 2.016-2.78 1.597-5.607 3.121-8.325 4.819-2.736 1.708-3.864 5.15-2.868 8.135 1.485 4.447 6.52 6.364 10.709 4.03 3.671-2.046 7.306-4.157 10.955-6.243.12-.07.226-.158.365-.258L18.01 34.428zM40.43 8.126c-.914-.025-1.907 1.103-1.529 1.75 5.839 10.004 11.68 20.003 17.513 30.007.182.312.354.425.745.37 1.683-.23 2.174-1.17 1.323-2.624-3.608-6.182-7.218-12.36-10.826-18.54-1.926-3.298-3.853-6.596-5.772-9.899-.33-.57-.72-1.037-1.452-1.063h-.001zM16.65 55.267c2.468 4.226 4.875 8.358 7.296 12.485.462.787 1.148 1.307 2.08 1.442 1.193.172 2.18-.207 2.872-1.185.732-1.032.712-2.124.088-3.201-1.259-2.175-2.53-4.34-3.798-6.51-1.143-1.957-2.29-3.914-3.465-5.924L16.65 55.27l.002-.002zm34.61-35.803l3.485 5.968c.596-.893 1.152-1.703 1.673-2.536.072-.114.008-.366-.075-.51a87.763 87.763 0 00-1.607-2.75c-.097-.157-.32-.348-.479-.344-.945.025-1.888.102-2.996.172zM25.73 53.428l2.531-1.451c-.52-.887-.987-1.689-1.464-2.503l-2.529 1.453c.509.867.967 1.652 1.465 2.503l-.002-.002zm39.416-37.792c-.358-.327-.826-.604-1.071-1.012-.309-.51-.16-1.082.271-1.522.167-.169.376-.309.585-.425 2.549-1.407 5.1-2.817 7.657-4.21.942-.511 1.808-.324 2.224.438.413.756.141 1.549-.754 2.051-1.65.927-3.316 1.83-4.974 2.742-.894.492-1.78.994-2.685 1.466-.335.174-.712.27-1.255.47l.002.002zm1.082 6.19c.174.04.508.107.835.194 1.55.41 3.1.818 4.646 1.244 1.042.289 1.513.99 1.275 1.843-.231.824-.985 1.2-1.983.945a251.78 251.78 0 01-5.285-1.393c-.89-.246-1.334-.896-1.215-1.638.123-.761.742-1.235 1.729-1.195h-.002zM56.236 8.692c.321-1.202.703-2.642 1.088-4.08.138-.512.257-1.03.43-1.528.282-.813 1.02-1.233 1.757-1.036.8.213 1.253.93 1.035 1.796a162.207 162.207 0 01-1.488 5.5c-.251.863-.93 1.24-1.72 1.077-.706-.145-1.135-.718-1.102-1.729z" fill="#4B8125"/><path d="M10.536 51.556c-1.866-.078-3.09-.709-3.949-1.991-.5-.75-.38-1.57.285-2.055.63-.463 1.414-.341 2.016.312.914.992 1.352 1.06 2.536.392.655-.372 1.3-.764 1.967-1.114.853-.448 1.699-.252 2.114.453.421.719.185 1.54-.646 2.037-.896.535-1.802 1.067-2.747 1.508-.58.27-1.242.366-1.576.46v-.002zm8.796-7.593c.807 0 1.445.619 1.451 1.406.005.778-.651 1.42-1.448 1.417-.807-.006-1.45-.63-1.45-1.41 0-.789.637-1.41 1.448-1.413h-.001z" fill="#4B8125"/></svg>
